!!!OTL: Schottischer Nationalgesang. / Die blauen Blumen Schottlands.
!!!OTL-incipit: AUF DEINEN HOEHN DU MEIN LIEB VATERLAND
!!!COM: Ges. v. H. Langer
!!!ARE: Europa, Mitteleuropa, Deutschland; Schottland
!!!SCT: F0393
!!!TXL: @@DE
!!!YEM: Copyright 1995, estate of Helmut Schaffrath.
**kern	**text
*ICvox	*
*M4/4	*
*met(c)	*
*k[b-e-a-]	*
*E-:	*
!LO:TX:a:t=Ruhig.	!
!LO:TX:a:t=Ein- oder zweistimmig zu singen.	!
{8b-	1._Auf
=1	=1
4ee-/	dei-
8dd/L	-nen
8ccJ	.
4b-/	Höh'n,
8cc/	du
16dd/L	mein
16ee-J	.
=2	=2
8g	lie-
8g	-bes
8a-	Va-
8f	-ter-
4e-	-land,
8r}	.
{8b-/	da
=3	=3
4ee-/	blüht
8dd/	ja
8cc/	ſo
(4b-/	ſchön
8cc/)	.
16dd/L	die
16ee-J	.
=4	=4
8g	Blum'
8g	am
8a-	Waldes-
8f	.
4e-	-rand!
8r}	.
{8b-/	Die
=5	=5
8.g	Blume
16e-	.
8g	blüht
8b-	ſo
4ee-/	blau,
8cc/L	ſo
16dd	.
16ee-J	.
=6	=6
8dd/	blau
8b-/	im
8cc/	Sonnen-
8an	.
4.b-/}	-ſchein
{16cc/L	und
16ddJ	.
=7	=7
4ee-/	lieb-
8dd/	-li-
8cc/	-ches
4b-/	Grün
8cc/L	ſchließt
8a-J	.
=8	=8
8.g	rings
16g	die
8a-	Blumen
8f	.
4e-	ein.
8r}	.
{8b-/	Die
=9	=9
8.g	Glo-
16e-	-cken-
8g	-blu-
8b-/	-men
4ee-/	blühn,
(8cc/L	ſo
16dd	.
16ee-J)	.
=10	=10
8dd/	hell
8b-/	im
8cc/	Son-
8an	-nen-
4.b-/}	-ſchein,
{16cc/L	und
16ddJ	.
=11	=11
8ff/L	lieb-
8ee-J	.
8dd/	-li-
8cc/	-ches
4b-/	Grün
(8a-/L	ſchließt
16b-	.
16ccJ)	.
=12	=12
8g	rings
8g	die
8a-	Blumen
8f	.
4e-	ein.
8r}	.
==	==
!!!AGN: Vaterlands -, Heimat - Lied, nationalistisch
!!!ONB: ESAC (Essen Associative Code) Database: FINK
!!!AMT: simple quadruple
!!!AIN: vox
!!!EED: Helmut Schaffrath
!!!EEV: 1.0
!!!GTL: Vaterlands- und Heimathslieder.
!!Text: Schott. Nationalges.
!!!source: Musikalischer Hausschatz der Deutschen. Eine Sammlung von über 1000 Liedern und Gesängen mit Singstimmen und Klavierbegleitung. Leipzig, Litterarisches Verlags-Haus.
!!!page: 238
!!!ENC: Anna Maria Matuszewska
!!!EEV: 2025/03/14
*-	*-
